X:652
M:C
L:1/8
K:C
a<d f>d g<c e>g|a<d f>d a<d g>_b|a<d f>d g<c e>g|a<f g>e A^c d2|
a<d f>d g<c e>g|a<d f>d a<d f>d|g<_bf>a g<c e>g|a<f g>e A^c d2||

